humanity-icon-theme/Humanity/devices/32/media-optical.svg

<?xml version="1.0" encoding="UTF-8" standalone="no"?>
<!-- Created with Inkscape (http://www.inkscape.org/) -->

<svg
   xmlns:svg="http://www.w3.org/2000/svg"
   xmlns="http://www.w3.org/2000/svg"
   xmlns:xlink="http://www.w3.org/1999/xlink"
   version="1.0"
   width="32"
   height="32"
   id="svg3795">
  <defs
     id="defs3797">
    <linearGradient
       id="linearGradient23419">
      <stop
         id="stop23421"
         style="stop-color:#000000;stop-opacity:1"
         offset="0" />
      <stop
         id="stop23423"
         style="stop-color:#000000;stop-opacity:0"
         offset="1" />
    </linearGradient>
    <linearGradient
       x1="12.2744"
       y1="32.4165"
       x2="35.391201"
       y2="14.2033"
       id="linearGradient3263"
       gradientUnits="userSpaceOnUse">
      <stop
         id="stop3265"
         style="stop-color:#dedbde;stop-opacity:1"
         offset="0" />
      <stop
         id="stop3267"
         style="stop-color:#e6e6e6;stop-opacity:1"
         offset="0.5" />
      <stop
         id="stop3269"
         style="stop-color:#d2d2d2;stop-opacity:1"
         offset="1" />
    </linearGradient>
    <linearGradient
       id="linearGradient3428">
      <stop
         id="stop3430"
         style="stop-color:#aaaaaa;stop-opacity:1"
         offset="0" />
      <stop
         id="stop3432"
         style="stop-color:#d4d4d4;stop-opacity:1"
         offset="1" />
    </linearGradient>
    <linearGradient
       id="linearGradient3519">
      <stop
         id="stop3521"
         style="stop-color:#fcd9cd;stop-opacity:1"
         offset="0" />
      <stop
         id="stop3523"
         style="stop-color:#fcd9cd;stop-opacity:0"
         offset="1" />
    </linearGradient>
    <linearGradient
       id="linearGradient3511">
      <stop
         id="stop3513"
         style="stop-color:#ebeec7;stop-opacity:1"
         offset="0" />
      <stop
         id="stop3515"
         style="stop-color:#ebeec7;stop-opacity:0"
         offset="1" />
    </linearGradient>
    <linearGradient
       id="linearGradient3503">
      <stop
         id="stop3505"
         style="stop-color:#c4ebdd;stop-opacity:1"
         offset="0" />
      <stop
         id="stop3507"
         style="stop-color:#c4ebdd;stop-opacity:0"
         offset="1" />
    </linearGradient>
    <linearGradient
       id="linearGradient3495">
      <stop
         id="stop3497"
         style="stop-color:#c1cbe4;stop-opacity:1"
         offset="0" />
      <stop
         id="stop3499"
         style="stop-color:#c1cbe4;stop-opacity:0"
         offset="1" />
    </linearGradient>
    <linearGradient
       id="linearGradient3487">
      <stop
         id="stop3489"
         style="stop-color:#e6cde2;stop-opacity:1"
         offset="0" />
      <stop
         id="stop3491"
         style="stop-color:#e6cde2;stop-opacity:0"
         offset="1" />
    </linearGradient>
    <linearGradient
       id="linearGradient3772">
      <stop
         id="stop3774"
         style="stop-color:#b4b4b4;stop-opacity:1"
         offset="0" />
      <stop
         id="stop3776"
         style="stop-color:#969696;stop-opacity:1"
         offset="1" />
    </linearGradient>
    <linearGradient
       id="linearGradient6036">
      <stop
         id="stop6038"
         style="stop-color:#ffffff;stop-opacity:1"
         offset="0" />
      <stop
         id="stop6040"
         style="stop-color:#ffffff;stop-opacity:0"
         offset="1" />
    </linearGradient>
    <linearGradient
       x1="18.775953"
       y1="4.0378027"
       x2="18.203465"
       y2="45.962208"
       id="linearGradient3406"
       xlink:href="#linearGradient6036"
       gradientUnits="userSpaceOnUse"
       gradientTransform="matrix(0.3283222,0,0,0.3283221,8.0063392,7.7919482)" />
    <linearGradient
       x1="20.018932"
       y1="3"
       x2="20.018932"
       y2="45.17627"
       id="linearGradient3409"
       xlink:href="#linearGradient3772"
       gradientUnits="userSpaceOnUse"
       gradientTransform="matrix(0.6585366,0,0,0.6585366,0.195122,0.1951224)" />
    <linearGradient
       x1="10.50172"
       y1="3.6100161"
       x2="48.798885"
       y2="54.698483"
       id="linearGradient3412"
       xlink:href="#linearGradient6036"
       gradientUnits="userSpaceOnUse"
       gradientTransform="matrix(0.6313887,0,0,0.6313887,0.6275783,0.2152854)" />
    <linearGradient
       x1="21.448364"
       y1="15.5"
       x2="21.448364"
       y2="32.509201"
       id="linearGradient3427"
       xlink:href="#linearGradient3428"
       gradientUnits="userSpaceOnUse"
       gradientTransform="matrix(0.6875,0,0,0.6875,-0.5000014,-0.5000001)" />
    <linearGradient
       x1="12.2744"
       y1="32.4165"
       x2="35.391201"
       y2="14.2033"
       id="linearGradient3431"
       xlink:href="#linearGradient3263"
       gradientUnits="userSpaceOnUse"
       gradientTransform="matrix(0,0.7714354,-0.7714354,0,33.82016,-2.5144527)" />
    <radialGradient
       cx="23.334524"
       cy="41.63604"
       r="22.627417"
       fx="23.334524"
       fy="41.63604"
       id="radialGradient3434"
       xlink:href="#linearGradient23419"
       gradientUnits="userSpaceOnUse"
       gradientTransform="matrix(0.6629126,0,0,0.1988553,0.5312494,18.220454)" />
    <linearGradient
       x1="20.580074"
       y1="10.774516"
       x2="24.27351"
       y2="9.8622112"
       id="linearGradient3436"
       xlink:href="#linearGradient3487"
       gradientUnits="userSpaceOnUse"
       spreadMethod="reflect" />
    <linearGradient
       x1="17.494959"
       y1="11.200086"
       x2="21.047453"
       y2="9.7956104"
       id="linearGradient3438"
       xlink:href="#linearGradient3495"
       gradientUnits="userSpaceOnUse"
       spreadMethod="reflect" />
    <linearGradient
       x1="14.084608"
       y1="13.045606"
       x2="16.994024"
       y2="10.732353"
       id="linearGradient3440"
       xlink:href="#linearGradient3503"
       gradientUnits="userSpaceOnUse"
       spreadMethod="reflect" />
    <linearGradient
       x1="12.371647"
       y1="16.188046"
       x2="14.609327"
       y2="13.461712"
       id="linearGradient3442"
       xlink:href="#linearGradient3511"
       gradientUnits="userSpaceOnUse"
       spreadMethod="reflect" />
    <linearGradient
       x1="10.609375"
       y1="17.886322"
       x2="9.7297754"
       y2="20.612656"
       id="linearGradient3444"
       xlink:href="#linearGradient3519"
       gradientUnits="userSpaceOnUse"
       spreadMethod="reflect" />
    <linearGradient
       x1="20.580074"
       y1="10.774516"
       x2="24.27351"
       y2="9.8622112"
       id="linearGradient3446"
       xlink:href="#linearGradient3487"
       gradientUnits="userSpaceOnUse"
       spreadMethod="reflect" />
    <linearGradient
       x1="17.494959"
       y1="11.200086"
       x2="21.047453"
       y2="9.7956104"
       id="linearGradient3448"
       xlink:href="#linearGradient3495"
       gradientUnits="userSpaceOnUse"
       spreadMethod="reflect" />
    <linearGradient
       x1="14.084608"
       y1="13.045606"
       x2="16.994024"
       y2="10.732353"
       id="linearGradient3450"
       xlink:href="#linearGradient3503"
       gradientUnits="userSpaceOnUse"
       spreadMethod="reflect" />
    <linearGradient
       x1="12.371647"
       y1="16.188046"
       x2="14.609327"
       y2="13.461712"
       id="linearGradient3452"
       xlink:href="#linearGradient3511"
       gradientUnits="userSpaceOnUse"
       spreadMethod="reflect" />
    <linearGradient
       x1="10.609375"
       y1="17.886322"
       x2="9.7297754"
       y2="20.612656"
       id="linearGradient3454"
       xlink:href="#linearGradient3519"
       gradientUnits="userSpaceOnUse"
       spreadMethod="reflect" />
  </defs>
  <path
     d="M 31,26.499999 C 31.000773,28.985213 24.284818,31 16,31 7.7151822,31 0.9992275,28.985213 1.0000001,26.499999 0.9992275,24.014787 7.7151822,22 16,22 c 8.284818,0 15.000773,2.014787 15,4.499999 z"
     id="path23417"
     style="opacity:0.3;fill:url(#radialGradient3434);fill-opacity:1;fill-rule:evenodd;stroke:none;stroke-width:2;marker:none;visibility:visible;display:inline;overflow:visible" />
  <path
     d="M 29.5,16 C 29.5,8.5170749 23.482924,2.5000004 16,2.5000004 8.5170738,2.5000004 2.5,8.5170755 2.5,16 c -1.3e-6,7.482925 6.0170745,13.5 13.5,13.5 7.482924,-1e-6 13.5,-6.017074 13.5,-13.5 z m -8.231707,0 c 0,3.044415 -2.223878,5.268293 -5.268293,5.268293 -3.044414,0 -5.268293,-2.223878 -5.268293,-5.268293 0,-3.044414 2.223879,-5.268293 5.268293,-5.268293 3.044415,0 5.268293,2.223879 5.268293,5.268293 z"
     id="path2781"
     style="fill:url(#linearGradient3431);fill-rule:nonzero;stroke:none" />
  <path
     d="m 16,10.731707 c -2.908097,0 -5.268293,2.360196 -5.268293,5.268293 0,2.908098 2.360196,5.268293 5.268293,5.268293 2.908098,0 5.268293,-2.360195 5.268293,-5.268293 0,-2.908097 -2.360195,-5.268293 -5.268293,-5.268293 z m 0,2.634147 c 1.454049,0 2.634147,1.180098 2.634147,2.634146 0,1.454049 -1.180098,2.634147 -2.634147,2.634147 -1.454048,0 -2.634146,-1.180098 -2.634146,-2.634147 0,-1.454048 1.180098,-2.634146 2.634146,-2.634146 z"
     id="path2474"
     style="opacity:0.5;fill:#ffffff;fill-opacity:1;fill-rule:nonzero;stroke:none;stroke-width:1;marker:none;visibility:visible;display:inline;overflow:visible;enable-background:accumulate" />
  <g
     transform="matrix(0.6585366,0,0,0.6585366,0.195122,0.1951224)"
     id="g3527">
    <path
       d="m 24,3.5 c -2.975804,0 -5.797406,0.6208152 -8.34375,1.75 L 20.625,16.34375 C 21.660403,15.885186 22.795334,15.625 24,15.625 c 0.03206,0 0.06178,-3.6e-4 0.09375,0 l 0,-12.125 c -0.03127,-1.386e-4 -0.06245,0 -0.09375,0 z"
       transform="matrix(0.9996011,0.02824295,-0.02824295,0.9996011,0.6924114,-0.6708346)"
       id="path3296"
       style="opacity:0.8;fill:url(#linearGradient3446);fill-opacity:1;fill-rule:nonzero;stroke:none" />
    <path
       d="m 19.597283,3.9975155 c -2.9067,0.6375811 -5.529765,1.8485223 -7.775043,3.4970525 l 7.230257,9.771547 c 0.913109,-0.669755 1.965938,-1.167064 3.142629,-1.425169 0.03132,-0.0069 0.06026,-0.01359 0.09157,-0.02009 L 19.688856,3.9774292 c -0.03058,0.00656 -0.061,0.013379 -0.09157,0.020086 z"
       id="path3308"
       style="opacity:0.8;fill:url(#linearGradient3448);fill-opacity:1;fill-rule:nonzero;stroke:none" />
    <path
       d="M 14.558173,5.8448691 C 11.915535,7.2130345 9.6952631,9.061613 7.9531621,11.235092 l 9.5129549,7.567261 c 0.70865,-0.883264 1.596891,-1.636119 2.666685,-2.18998 0.02847,-0.01474 0.05469,-0.02872 0.08325,-0.0431 L 14.641427,5.8017664 c -0.02783,0.014254 -0.05545,0.02871 -0.08325,0.043103 z"
       id="path3310"
       style="opacity:0.8;fill:url(#linearGradient3450);fill-opacity:1;fill-rule:nonzero;stroke:none" />
    <path
       d="M 10.168897,8.9334932 C 7.970412,10.939005 6.3042413,13.299243 5.1840387,15.849551 L 16.331399,20.69683 c 0.455898,-1.036579 1.119019,-1.993675 2.009011,-2.805547 0.02369,-0.02161 0.0454,-0.0419 0.06926,-0.06318 L 10.238158,8.8703115 c -0.0232,0.020972 -0.04613,0.042084 -0.06926,0.063182 z"
       id="path3312"
       style="opacity:0.8;fill:url(#linearGradient3452);fill-opacity:1;fill-rule:nonzero;stroke:none" />
    <path
       d="m 6.78125,12.96875 c -0.016978,0.02626 -0.045621,0.06739 -0.0625,0.09375 -1.1482224,1.793482 -1.9616625,3.681269 -2.5,5.625 l 11.75,3.125 c 0.215514,-0.763003 0.518046,-1.514767 0.96875,-2.21875 0.01729,-0.027 0.04496,-0.06702 0.0625,-0.09375 L 6.78125,12.96875 z"
       id="path3314"
       style="opacity:0.8;fill:url(#linearGradient3454);fill-opacity:1;fill-rule:nonzero;stroke:none" />
  </g>
  <g
     transform="matrix(-0.6585366,0,0,-0.6585366,31.804879,31.804879)"
     id="g3642"
     style="opacity:0.8">
    <path
       d="m 24,3.5 c -2.975804,0 -5.797406,0.6208152 -8.34375,1.75 L 20.625,16.34375 C 21.660403,15.885186 22.795334,15.625 24,15.625 c 0.03206,0 0.06178,-3.6e-4 0.09375,0 l 0,-12.125 c -0.03127,-1.386e-4 -0.06245,0 -0.09375,0 z"
       transform="matrix(0.9996011,0.02824295,-0.02824295,0.9996011,0.6924114,-0.6708346)"
       id="path3644"
       style="opacity:0.8;fill:url(#linearGradient3436);fill-opacity:1;fill-rule:nonzero;stroke:none" />
    <path
       d="m 19.597283,3.9975155 c -2.9067,0.6375811 -5.529765,1.8485223 -7.775043,3.4970525 l 7.230257,9.771547 c 0.913109,-0.669755 1.965938,-1.167064 3.142629,-1.425169 0.03132,-0.0069 0.06026,-0.01359 0.09157,-0.02009 L 19.688856,3.9774292 c -0.03058,0.00656 -0.061,0.013379 -0.09157,0.020086 z"
       id="path3646"
       style="opacity:0.8;fill:url(#linearGradient3438);fill-opacity:1;fill-rule:nonzero;stroke:none" />
    <path
       d="M 14.558173,5.8448691 C 11.915535,7.2130345 9.6952631,9.061613 7.9531621,11.235092 l 9.5129549,7.567261 c 0.70865,-0.883264 1.596891,-1.636119 2.666685,-2.18998 0.02847,-0.01474 0.05469,-0.02872 0.08325,-0.0431 L 14.641427,5.8017664 c -0.02783,0.014254 -0.05545,0.02871 -0.08325,0.043103 z"
       id="path3648"
       style="opacity:0.8;fill:url(#linearGradient3440);fill-opacity:1;fill-rule:nonzero;stroke:none" />
    <path
       d="M 10.168897,8.9334932 C 7.970412,10.939005 6.3042413,13.299243 5.1840387,15.849551 L 16.331399,20.69683 c 0.455898,-1.036579 1.119019,-1.993675 2.009011,-2.805547 0.02369,-0.02161 0.0454,-0.0419 0.06926,-0.06318 L 10.238158,8.8703115 c -0.0232,0.020972 -0.04613,0.042084 -0.06926,0.063182 z"
       id="path3650"
       style="opacity:0.8;fill:url(#linearGradient3442);fill-opacity:1;fill-rule:nonzero;stroke:none" />
    <path
       d="m 6.78125,12.96875 c -0.016978,0.02626 -0.045621,0.06739 -0.0625,0.09375 -1.1482224,1.793482 -1.9616625,3.681269 -2.5,5.625 l 11.75,3.125 c 0.215514,-0.763003 0.518046,-1.514767 0.96875,-2.21875 0.01729,-0.027 0.04496,-0.06702 0.0625,-0.09375 L 6.78125,12.96875 z"
       id="path3652"
       style="opacity:0.8;fill:url(#linearGradient3444);fill-opacity:1;fill-rule:nonzero;stroke:none" />
  </g>
  <path
     d="M 15.999999,3.4999998 C 9.0714285,3.4999998 3.4999996,9.0714298 3.4999996,16 c 0,6.928573 5.5714289,12.500001 12.4999994,12.500001 6.928572,0 12.5,-5.571428 12.5,-12.500001 0,-6.9285702 -5.571428,-12.5000002 -12.5,-12.5000002 l 0,0 0,0 z"
     id="path2787"
     style="opacity:0.5;fill:none;stroke:url(#linearGradient3412);stroke-width:1;stroke-miterlimit:4;stroke-opacity:1" />
  <path
     d="M 16,2.5000004 C 8.5170743,2.5000004 2.5,8.517076 2.5,16 2.5,23.482926 8.517075,29.5 16,29.5 23.482925,29.5 29.499999,23.482926 29.499999,16 29.499998,8.5170767 23.482926,2.5000004 16,2.5000004 z"
     id="path3287"
     style="fill:none;stroke:url(#linearGradient3409);stroke-width:1;stroke-miterlimit:4;stroke-opacity:1" />
  <path
     d="M 15.999999,9.4999999 C 12.397142,9.4999999 9.5,12.397142 9.5,15.999999 9.5,19.602857 12.397142,22.5 15.999999,22.5 c 3.60286,0 6.5,-2.897143 6.5,-6.500001 0,-3.602857 -2.89714,-6.4999991 -6.5,-6.4999991 l 0,0 0,0 z"
     id="path3281"
     style="opacity:0.8;fill:none;stroke:url(#linearGradient3406);stroke-width:0.99999994;stroke-miterlimit:4;stroke-opacity:1" />
  <path
     d="M 15.999999,10.5 C 12.964,10.5 10.5,12.964001 10.5,16 c 0,3.036 2.464,5.5 5.499999,5.5 3.036,0 5.5,-2.464 5.5,-5.5 0,-3.035999 -2.464,-5.5 -5.5,-5.5 z m 0,2.75 c 1.518001,0 2.75,1.232001 2.75,2.75 0,1.518001 -1.231999,2.75 -2.75,2.75 -1.517999,0 -2.75,-1.231999 -2.75,-2.75 0,-1.517999 1.232001,-2.75 2.75,-2.75 z"
     id="path3418"
     style="fill:none;stroke:url(#linearGradient3427);stroke-width:0.99999994;stroke-linecap:butt;stroke-linejoin:round;stroke-miterlimit:4;stroke-opacity:1;stroke-dasharray:none;stroke-dashoffset:0;marker:none;visibility:visible;display:inline;overflow:visible;enable-background:accumulate" />
</svg>

<?xml version="1.0" encoding="UTF-8" standalone="no"?>
<!-- Created with Inkscape (http://www.inkscape.org/) -->
<svg id="svg3795" xmlns="http://www.w3.org/2000/svg" height="32" width="32" version="1.0" xmlns:xlink="http://www.w3.org/1999/xlink">
 <defs id="defs3797">
  <linearGradient id="linearGradient3519">
   <stop id="stop3521" style="stop-color:#fcd9cd" offset="0"/>
   <stop id="stop3523" style="stop-color:#fcd9cd;stop-opacity:0" offset="1"/>
  </linearGradient>
  <linearGradient id="linearGradient3511">
   <stop id="stop3513" style="stop-color:#ebeec7" offset="0"/>
   <stop id="stop3515" style="stop-color:#ebeec7;stop-opacity:0" offset="1"/>
  </linearGradient>
  <linearGradient id="linearGradient3503">
   <stop id="stop3505" style="stop-color:#c4ebdd" offset="0"/>
   <stop id="stop3507" style="stop-color:#c4ebdd;stop-opacity:0" offset="1"/>
  </linearGradient>
  <linearGradient id="linearGradient3495">
   <stop id="stop3497" style="stop-color:#c1cbe4" offset="0"/>
   <stop id="stop3499" style="stop-color:#c1cbe4;stop-opacity:0" offset="1"/>
  </linearGradient>
  <linearGradient id="linearGradient3487">
   <stop id="stop3489" style="stop-color:#e6cde2" offset="0"/>
   <stop id="stop3491" style="stop-color:#e6cde2;stop-opacity:0" offset="1"/>
  </linearGradient>
  <linearGradient id="linearGradient6036">
   <stop id="stop6038" style="stop-color:#fff" offset="0"/>
   <stop id="stop6040" style="stop-color:#fff;stop-opacity:0" offset="1"/>
  </linearGradient>
  <linearGradient id="linearGradient3406" y2="45.962" xlink:href="#linearGradient6036" gradientUnits="userSpaceOnUse" x2="18.203" gradientTransform="matrix(.32832 0 0 .32832 8.0063 7.7919)" y1="4.0378" x1="18.776"/>
  <linearGradient id="linearGradient3409" y2="45.176" gradientUnits="userSpaceOnUse" x2="20.019" gradientTransform="matrix(.65854 0 0 .65854 .19512 .19512)" y1="3" x1="20.019">
   <stop id="stop3774" style="stop-color:#b4b4b4" offset="0"/>
   <stop id="stop3776" style="stop-color:#969696" offset="1"/>
  </linearGradient>
  <linearGradient id="linearGradient3412" y2="54.698" xlink:href="#linearGradient6036" gradientUnits="userSpaceOnUse" x2="48.799" gradientTransform="matrix(.63139 0 0 .63139 .62758 .21529)" y1="3.61" x1="10.502"/>
  <linearGradient id="linearGradient3427" y2="32.509" gradientUnits="userSpaceOnUse" x2="21.448" gradientTransform="matrix(.6875 0 0 .6875 -0.5 -0.5)" y1="15.5" x1="21.448">
   <stop id="stop3430" style="stop-color:#aaa" offset="0"/>
   <stop id="stop3432" style="stop-color:#d4d4d4" offset="1"/>
  </linearGradient>
  <linearGradient id="linearGradient3431" y2="14.203" gradientUnits="userSpaceOnUse" x2="35.391" gradientTransform="matrix(0 .77144 -.77144 0 33.82 -2.5145)" y1="32.416" x1="12.274">
   <stop id="stop3265" style="stop-color:#dedbde" offset="0"/>
   <stop id="stop3267" style="stop-color:#e6e6e6" offset=".5"/>
   <stop id="stop3269" style="stop-color:#d2d2d2" offset="1"/>
  </linearGradient>
  <radialGradient id="radialGradient3434" gradientUnits="userSpaceOnUse" cy="41.636" cx="23.335" gradientTransform="matrix(.66291 0 0 .19886 .53125 18.22)" r="22.627">
   <stop id="stop23421" offset="0"/>
   <stop id="stop23423" style="stop-opacity:0" offset="1"/>
  </radialGradient>
  <linearGradient id="linearGradient3436" y2="9.8622" xlink:href="#linearGradient3487" spreadMethod="reflect" gradientUnits="userSpaceOnUse" x2="24.274" y1="10.775" x1="20.58"/>
  <linearGradient id="linearGradient3438" y2="9.7956" xlink:href="#linearGradient3495" spreadMethod="reflect" gradientUnits="userSpaceOnUse" x2="21.047" y1="11.2" x1="17.495"/>
  <linearGradient id="linearGradient3440" y2="10.732" xlink:href="#linearGradient3503" spreadMethod="reflect" gradientUnits="userSpaceOnUse" x2="16.994" y1="13.046" x1="14.085"/>
  <linearGradient id="linearGradient3442" y2="13.462" xlink:href="#linearGradient3511" spreadMethod="reflect" gradientUnits="userSpaceOnUse" x2="14.609" y1="16.188" x1="12.372"/>
  <linearGradient id="linearGradient3444" y2="20.613" xlink:href="#linearGradient3519" spreadMethod="reflect" gradientUnits="userSpaceOnUse" x2="9.7298" y1="17.886" x1="10.609"/>
 </defs>
 <path id="path23417" style="opacity:.3;fill-rule:evenodd;fill:url(#radialGradient3434)" d="m31 26.5c0.001 2.485-6.715 4.5-15 4.5-8.2848 0-15.001-2.015-15-4.5-0.00077-2.485 6.7152-4.5 15-4.5s15.001 2.0148 15 4.5z"/>
 <path id="path2781" style="fill:url(#linearGradient3431)" d="m29.5 16c0-7.4829-6.017-13.5-13.5-13.5-7.4829 0-13.5 6.0171-13.5 13.5-0.0000013 7.4829 6.0171 13.5 13.5 13.5 7.4829-0.000001 13.5-6.0171 13.5-13.5zm-8.2317 0c0 3.0444-2.2239 5.2683-5.2683 5.2683s-5.2683-2.2239-5.2683-5.2683 2.2239-5.2683 5.2683-5.2683 5.2683 2.2239 5.2683 5.2683z"/>
 <path id="path2474" style="opacity:.5;fill:#fff" d="m16 10.732c-2.9081 0-5.2683 2.3602-5.2683 5.2683s2.3602 5.2683 5.2683 5.2683 5.2683-2.3602 5.2683-5.2683-2.3602-5.2683-5.2683-5.2683zm0 2.6341c1.454 0 2.6341 1.1801 2.6341 2.6341s-1.1801 2.6341-2.6341 2.6341-2.6341-1.1801-2.6341-2.6341 1.1801-2.6341 2.6341-2.6341z"/>
 <g id="g3527" transform="matrix(.65854 0 0 .65854 .19512 .19512)">
  <path id="path3296" style="opacity:.8;fill:url(#linearGradient3436)" d="m24 3.5c-2.9758 0-5.7974 0.62082-8.3438 1.75l4.969 11.094c1.035-0.459 2.17-0.719 3.375-0.719 0.03206 0 0.06178-0.00036 0.09375 0v-12.125c-0.03127-0.0001386-0.06245 0-0.09375 0z" transform="matrix(.99960 .028243 -.028243 .99960 .69241 -.67083)"/>
  <path id="path3308" style="opacity:.8;fill:url(#linearGradient3438)" d="m19.597 3.9975c-2.9067 0.63758-5.5298 1.8485-7.775 3.4971l7.2303 9.7715c0.91311-0.66976 1.9659-1.1671 3.1426-1.4252 0.03132-0.0069 0.06026-0.01359 0.09157-0.02009l-2.597-11.844c-0.03058 0.00656-0.061 0.013379-0.09157 0.020086z"/>
  <path id="path3310" style="opacity:.8;fill:url(#linearGradient3440)" d="m14.558 5.8449c-2.642 1.3681-4.8627 3.2167-6.6048 5.3901l9.513 7.5673c0.70865-0.88326 1.5969-1.6361 2.6667-2.19 0.02847-0.01474 0.05469-0.02872 0.08325-0.0431l-5.575-10.767c-0.02783 0.014254-0.05545 0.02871-0.08325 0.043103z"/>
  <path id="path3312" style="opacity:.8;fill:url(#linearGradient3442)" d="m10.169 8.9335c-2.1986 2.0055-3.8648 4.3655-4.985 6.9165l11.147 4.847c0.4559-1.0366 1.119-1.9937 2.009-2.8055 0.02369-0.02161 0.0454-0.0419 0.06926-0.06318l-8.171-8.9577c-0.0232 0.020972-0.04613 0.042084-0.06926 0.063182z"/>
  <path id="path3314" style="opacity:.8;fill:url(#linearGradient3444)" d="m6.7812 12.969c-0.016978 0.02626-0.045621 0.06739-0.0625 0.09375-1.1482 1.7935-1.9617 3.6813-2.5 5.625l11.75 3.125c0.21551-0.763 0.51805-1.5148 0.96875-2.2188 0.01729-0.027 0.04496-0.06702 0.0625-0.09375l-10.219-6.531z"/>
 </g>
 <g id="g3642" style="opacity:.8" transform="matrix(-.65854 0 0 -.65854 31.805 31.805)">
  <path id="path3644" style="opacity:.8;fill:url(#linearGradient3436)" d="m24 3.5c-2.9758 0-5.7974 0.62082-8.3438 1.75l4.969 11.094c1.035-0.459 2.17-0.719 3.375-0.719 0.03206 0 0.06178-0.00036 0.09375 0v-12.125c-0.03127-0.0001386-0.06245 0-0.09375 0z" transform="matrix(.99960 .028243 -.028243 .99960 .69241 -.67083)"/>
  <path id="path3646" style="opacity:.8;fill:url(#linearGradient3438)" d="m19.597 3.9975c-2.9067 0.63758-5.5298 1.8485-7.775 3.4971l7.2303 9.7715c0.91311-0.66976 1.9659-1.1671 3.1426-1.4252 0.03132-0.0069 0.06026-0.01359 0.09157-0.02009l-2.597-11.844c-0.03058 0.00656-0.061 0.013379-0.09157 0.020086z"/>
  <path id="path3648" style="opacity:.8;fill:url(#linearGradient3440)" d="m14.558 5.8449c-2.642 1.3681-4.8627 3.2167-6.6048 5.3901l9.513 7.5673c0.70865-0.88326 1.5969-1.6361 2.6667-2.19 0.02847-0.01474 0.05469-0.02872 0.08325-0.0431l-5.575-10.767c-0.02783 0.014254-0.05545 0.02871-0.08325 0.043103z"/>
  <path id="path3650" style="opacity:.8;fill:url(#linearGradient3442)" d="m10.169 8.9335c-2.1986 2.0055-3.8648 4.3655-4.985 6.9165l11.147 4.847c0.4559-1.0366 1.119-1.9937 2.009-2.8055 0.02369-0.02161 0.0454-0.0419 0.06926-0.06318l-8.171-8.9577c-0.0232 0.020972-0.04613 0.042084-0.06926 0.063182z"/>
  <path id="path3652" style="opacity:.8;fill:url(#linearGradient3444)" d="m6.7812 12.969c-0.016978 0.02626-0.045621 0.06739-0.0625 0.09375-1.1482 1.7935-1.9617 3.6813-2.5 5.625l11.75 3.125c0.21551-0.763 0.51805-1.5148 0.96875-2.2188 0.01729-0.027 0.04496-0.06702 0.0625-0.09375l-10.219-6.531z"/>
 </g>
 <path id="path2787" style="opacity:.5;stroke:url(#linearGradient3412);fill:none" d="m16 3.5c-6.9286 0-12.5 5.5714-12.5 12.5s5.5714 12.5 12.5 12.5 12.5-5.5714 12.5-12.5-5.5714-12.5-12.5-12.5z"/>
 <path id="path3287" style="stroke:url(#linearGradient3409);fill:none" d="m16 2.5c-7.4829 0-13.5 6.0171-13.5 13.5 0 7.483 6.0171 13.5 13.5 13.5 7.483 0 13.5-6.017 13.5-13.5 0-7.4829-6.017-13.5-13.5-13.5z"/>
 <path id="path3281" style="opacity:.8;stroke:url(#linearGradient3406);fill:none" d="m16 9.5c-3.603 0-6.5 2.897-6.5 6.5s2.897 6.5 6.5 6.5c3.6029 0 6.5-2.8971 6.5-6.5s-2.8971-6.5-6.5-6.5z"/>
 <path id="path3418" style="stroke-linejoin:round;stroke:url(#linearGradient3427);fill:none" d="m16 10.5c-3.036 0-5.5 2.464-5.5 5.5s2.464 5.5 5.5 5.5 5.5-2.464 5.5-5.5-2.464-5.5-5.5-5.5zm0 2.75c1.518 0 2.75 1.232 2.75 2.75s-1.232 2.75-2.75 2.75-2.75-1.232-2.75-2.75 1.232-2.75 2.75-2.75z"/>
</svg>
